svgs/sharp-thin/calendar-plus.svg

<svg xmlns="http://www.w3.org/2000/svg" viewBox="0 0 448 512"><!--! Font Awesome Pro 6.6.0 by @fontawesome - https://fontawesome.com License - https://fontawesome.com/license (Commercial License) Copyright 2024 Fonticons, Inc. --><path d="M128 0l0 8 0 56 192 0 0-56 0-8 16 0 0 8 0 56 96 0 16 0 0 16 0 96 0 16 0 304 0 16-16 0L16 512 0 512l0-16L0 192l0-16L0 80 0 64l16 0 96 0 0-56 0-8 16 0zM432 192L16 192l0 304 416 0 0-304zM112 120l0-40L16 80l0 96 416 0 0-96-96 0 0 40 0 8-16 0 0-8 0-40L128 80l0 40 0 8-16 0 0-8zM320 352l-8 0-80 0 0 80 0 8-16 0 0-8 0-80-80 0-8 0 0-16 8 0 80 0 0-80 0-8 16 0 0 8 0 80 80 0 8 0 0 16z"/></svg>

<svg xmlns="http://www.w3.org/2000/svg" viewBox="0 0 448 512"><!--! Font Awesome Pro 6.5.2 by @fontawesome - https://fontawesome.com License - https://fontawesome.com/license (Commercial License) Copyright 2024 Fonticons, Inc. --><path d="M128 0V8 64H320V8 0h16V8 64h96 16V80v96 16V496v16H432 16 0V496 192 176 80 64H16h96V8 0h16zM432 192H16V496H432V192zM112 120V80H16v96H432V80H336v40 8H320v-8V80H128v40 8H112v-8zM320 352h-8H232v80 8H216v-8V352H136h-8V336h8 80V256v-8h16v8 80h80 8v16z"/></svg>
